icons/haxe.svg

<?xml version="1.0" encoding="UTF-8" standalone="no"?>
<!-- Created with Inkscape (http://www.inkscape.org/) -->

<svg
   xmlns:dc="http://purl.org/dc/elements/1.1/"
   xmlns:cc="http://creativecommons.org/ns#"
   xmlns:rdf="http://www.w3.org/1999/02/22-rdf-syntax-ns#"
   xmlns:svg="http://www.w3.org/2000/svg"
   xmlns="http://www.w3.org/2000/svg"
   xmlns:sodipodi="http://sodipodi.sourceforge.net/DTD/sodipodi-0.dtd"
   xmlns:inkscape="http://www.inkscape.org/namespaces/inkscape"
   width="210mm"
   height="210mm"
   viewBox="0 0 210 210"
   version="1.1"
   id="svg8"
   inkscape:version="0.92.0 r15299"
   sodipodi:docname="haxe.svg">
  <defs
     id="defs2" />
  <sodipodi:namedview
     id="base"
     pagecolor="#ffffff"
     bordercolor="#666666"
     borderopacity="1.0"
     inkscape:pageopacity="0.0"
     inkscape:pageshadow="2"
     inkscape:zoom="0.7"
     inkscape:cx="322.13382"
     inkscape:cy="409.10575"
     inkscape:document-units="mm"
     inkscape:current-layer="layer1"
     showgrid="false"
     inkscape:window-width="1366"
     inkscape:window-height="705"
     inkscape:window-x="-8"
     inkscape:window-y="-8"
     inkscape:window-maximized="1" />
  <metadata
     id="metadata5">
    <rdf:RDF>
      <cc:Work
         rdf:about="">
        <dc:format>image/svg+xml</dc:format>
        <dc:type
           rdf:resource="http://purl.org/dc/dcmitype/StillImage" />
        <dc:title></dc:title>
      </cc:Work>
    </rdf:RDF>
  </metadata>
  <g
     inkscape:label="Ebene 1"
     inkscape:groupmode="layer"
     id="layer1"
     transform="translate(0,-87)">
    <rect
       style="fill:#f68712;fill-opacity:1;stroke-width:0.22110496"
       id="rect5036"
       width="89.705452"
       height="89.705452"
       x="-105.19252"
       y="165.69254"
       transform="rotate(-45)" />
    <path
       sodipodi:type="star"
       style="fill:#fab20b;fill-opacity:1;stroke-width:0.26588854"
       id="path5038"
       sodipodi:sides="3"
       sodipodi:cx="56.199991"
       sodipodi:cy="141.58051"
       sodipodi:r1="51.77552"
       sodipodi:r2="25.88776"
       sodipodi:arg1="1.8325957"
       sodipodi:arg2="2.8797933"
       inkscape:flatsided="false"
       inkscape:rounded="0"
       inkscape:randomized="0"
       d="M 42.799499,191.59182 31.194333,148.28075 19.589167,104.96968 62.900236,116.57485 106.2113,128.18001 74.505399,159.88592 Z"
       inkscape:transform-center-x="-6.7002451"
       inkscape:transform-center-y="6.7002426" />
    <path
       sodipodi:type="star"
       style="fill:#fbc707;fill-opacity:1;stroke-width:0.26458332"
       id="path5042"
       sodipodi:sides="3"
       sodipodi:cx="-6.9490075"
       sodipodi:cy="48.973881"
       sodipodi:r1="64.893127"
       sodipodi:r2="32.678188"
       sodipodi:arg1="0.52359878"
       sodipodi:arg2="1.5707963"
       inkscape:flatsided="false"
       inkscape:rounded="0"
       inkscape:randomized="0"
       d="M 49.250089,81.420445 -6.9490066,81.652069 -63.148105,81.420444 -35.249149,32.634787 -6.9490072,-15.919247 21.351133,32.634786 Z"
       inkscape:transform-center-y="4.2110597"
       transform="matrix(0.76839616,0.20589113,-0.03053297,0.1139506,70.597937,108.69341)"
       inkscape:transform-center-x="1.1283496" />
    <path
       sodipodi:type="star"
       style="fill:#fff200;fill-opacity:1;stroke-width:0.26458332"
       id="path5042-7"
       sodipodi:sides="3"
       sodipodi:cx="-6.9490075"
       sodipodi:cy="48.973881"
       sodipodi:r1="64.893127"
       sodipodi:r2="32.678188"
       sodipodi:arg1="0.52359878"
       sodipodi:arg2="1.5707963"
       inkscape:flatsided="false"
       inkscape:rounded="0"
       inkscape:randomized="0"
       d="M 49.250089,81.420445 -6.9490066,81.652069 -63.148105,81.420444 -35.249149,32.634787 -6.9490072,-15.919247 21.351133,32.634786 Z"
       inkscape:transform-center-y="-1.1283469"
       transform="matrix(-0.20589114,-0.76839617,0.1139506,-0.03053297,20.451416,145.29927)"
       inkscape:transform-center-x="-4.2110592" />
    <path
       sodipodi:type="star"
       style="fill:#f47216;fill-opacity:1;stroke-width:0.26588854"
       id="path5038-6"
       sodipodi:sides="3"
       sodipodi:cx="110.47237"
       sodipodi:cy="195.80571"
       sodipodi:r1="51.77552"
       sodipodi:r2="25.88776"
       sodipodi:arg1="1.8325957"
       sodipodi:arg2="2.8797933"
       inkscape:flatsided="false"
       inkscape:rounded="0"
       inkscape:randomized="0"
       d="M 97.071876,245.81702 85.46671,202.50595 73.861544,159.19489 l 43.311066,11.60516 43.31107,11.60517 -31.7059,31.7059 z"
       inkscape:transform-center-x="6.7002428"
       inkscape:transform-center-y="6.7002457"
       transform="rotate(90,160.49344,191.55441)" />
    <path
       sodipodi:type="star"
       style="fill:#f1471d;fill-opacity:1;stroke-width:0.26458332"
       id="path5042-0"
       sodipodi:sides="3"
       sodipodi:cx="-6.9490075"
       sodipodi:cy="48.973881"
       sodipodi:r1="64.893127"
       sodipodi:r2="32.678188"
       sodipodi:arg1="0.52359878"
       sodipodi:arg2="1.5707963"
       inkscape:flatsided="false"
       inkscape:rounded="0"
       inkscape:randomized="0"
       d="M 49.250089,81.420445 -6.9490066,81.652069 -63.148105,81.420444 -35.249149,32.634787 -6.9490072,-15.919247 21.351133,32.634786 Z"
       inkscape:transform-center-y="-1.128349"
       transform="matrix(-0.20589113,0.76839617,-0.1139506,-0.03053297,189.12923,155.9313)"
       inkscape:transform-center-x="4.2110599" />
    <path
       sodipodi:type="star"
       style="fill:#fbc707;fill-opacity:1;stroke-width:0.26458332"
       id="path5042-7-6"
       sodipodi:sides="3"
       sodipodi:cx="-6.9490075"
       sodipodi:cy="48.973881"
       sodipodi:r1="64.893127"
       sodipodi:r2="32.678188"
       sodipodi:arg1="0.52359878"
       sodipodi:arg2="1.5707963"
       inkscape:flatsided="false"
       inkscape:rounded="0"
       inkscape:randomized="0"
       d="M 49.250089,81.420445 -6.9490066,81.652069 -63.148105,81.420444 -35.249149,32.634787 -6.9490072,-15.919247 21.351133,32.634786 Z"
       inkscape:transform-center-y="4.2110578"
       transform="matrix(0.76839617,-0.20589114,0.03053297,0.1139506,152.52337,105.78478)"
       inkscape:transform-center-x="-1.1283467" />
    <path
       sodipodi:type="star"
       style="fill:#f25c19;fill-opacity:1;stroke-width:0.26588854"
       id="path5038-6-5"
       sodipodi:sides="3"
       sodipodi:cx="-156.24214"
       sodipodi:cy="-241.55597"
       sodipodi:r1="51.77552"
       sodipodi:r2="25.88776"
       sodipodi:arg1="1.8325957"
       sodipodi:arg2="2.8797933"
       inkscape:flatsided="false"
       inkscape:rounded="0"
       inkscape:randomized="0"
       d="m -169.64263,-191.54466 -11.60517,-43.31106 -11.60516,-43.31107 43.31106,11.60516 43.31107,11.60517 -31.7059,31.7059 z"
       inkscape:transform-center-x="6.700248"
       inkscape:transform-center-y="-6.7002475"
       transform="scale(-1)" />
    <path
       sodipodi:type="star"
       style="fill:#f68712;fill-opacity:1;stroke-width:0.26458332"
       id="path5042-0-6"
       sodipodi:sides="3"
       sodipodi:cx="-6.9490075"
       sodipodi:cy="48.973881"
       sodipodi:r1="64.893127"
       sodipodi:r2="32.678188"
       sodipodi:arg1="0.52359878"
       sodipodi:arg2="1.5707963"
       inkscape:flatsided="false"
       inkscape:rounded="0"
       inkscape:randomized="0"
       d="M 49.250089,81.420445 -6.9490066,81.652069 -63.148105,81.420444 -35.249149,32.634787 -6.9490072,-15.919247 21.351133,32.634786 Z"
       inkscape:transform-center-y="-4.2110593"
       transform="matrix(-0.76839617,-0.20589113,0.03053297,-0.1139506,141.84418,274.44306)"
       inkscape:transform-center-x="-1.1283488" />
    <path
       sodipodi:type="star"
       style="fill:#f1471d;fill-opacity:1;stroke-width:0.26458332"
       id="path5042-7-6-7"
       sodipodi:sides="3"
       sodipodi:cx="-6.9490075"
       sodipodi:cy="48.973881"
       sodipodi:r1="64.893127"
       sodipodi:r2="32.678188"
       sodipodi:arg1="0.52359878"
       sodipodi:arg2="1.5707963"
       inkscape:flatsided="false"
       inkscape:rounded="0"
       inkscape:randomized="0"
       d="M 49.250089,81.420445 -6.9490066,81.652069 -63.148105,81.420444 -35.249149,32.634787 -6.9490072,-15.919247 21.351133,32.634786 Z"
       inkscape:transform-center-y="1.1283473"
       transform="matrix(0.20589114,0.76839617,-0.1139506,0.03053297,191.9907,237.8372)"
       inkscape:transform-center-x="4.211058" />
    <path
       sodipodi:type="star"
       style="fill:#f89c0e;fill-opacity:1;stroke-width:0.26588854"
       id="path5038-6-5-6"
       sodipodi:sides="3"
       sodipodi:cx="-70.956192"
       sodipodi:cy="-232.26276"
       sodipodi:r1="51.77552"
       sodipodi:r2="25.88776"
       sodipodi:arg1="1.8325957"
       sodipodi:arg2="2.8797933"
       inkscape:flatsided="false"
       inkscape:rounded="0"
       inkscape:randomized="0"
       d="m -84.356682,-182.25144 -11.605166,-43.31107 -11.605162,-43.31107 43.311064,11.60517 43.311066,11.60516 -31.705902,31.70591 z"
       inkscape:transform-center-x="-6.7002473"
       inkscape:transform-center-y="-6.7002474"
       transform="rotate(-90,229.54102,-58.921719)" />
    <path
       sodipodi:type="star"
       style="fill:#fff200;fill-opacity:1;stroke-width:0.26458332"
       id="path5042-0-6-8"
       sodipodi:sides="3"
       sodipodi:cx="-6.9490075"
       sodipodi:cy="48.973881"
       sodipodi:r1="64.893127"
       sodipodi:r2="32.678188"
       sodipodi:arg1="0.52359878"
       sodipodi:arg2="1.5707963"
       inkscape:flatsided="false"
       inkscape:rounded="0"
       inkscape:randomized="0"
       d="M 49.250089,81.420445 -6.9490066,81.652069 -63.148105,81.420444 -35.249149,32.634787 -6.9490072,-15.919247 21.351133,32.634786 Z"
       inkscape:transform-center-y="1.1283454"
       transform="matrix(0.20589113,-0.76839617,0.1139506,0.03053297,23.312903,227.17754)"
       inkscape:transform-center-x="-4.2110591" />
    <path
       sodipodi:type="star"
       style="fill:#f25c19;fill-opacity:1;stroke-width:0.26458332"
       id="path5042-7-6-7-0"
       sodipodi:sides="3"
       sodipodi:cx="-6.9490075"
       sodipodi:cy="48.973881"
       sodipodi:r1="64.893127"
       sodipodi:r2="32.678188"
       sodipodi:arg1="0.52359878"
       sodipodi:arg2="1.5707963"
       inkscape:flatsided="false"
       inkscape:rounded="0"
       inkscape:randomized="0"
       d="M 49.250089,81.420445 -6.9490066,81.652069 -63.148105,81.420444 -35.249149,32.634787 -6.9490072,-15.919247 21.351133,32.634786 Z"
       inkscape:transform-center-y="-4.2110574"
       transform="matrix(-0.76839617,0.20589114,-0.03053297,-0.1139506,59.918763,277.32406)"
       inkscape:transform-center-x="1.1283475" />
  </g>
</svg>

<?xml version="1.0" encoding="UTF-8"?>
<svg width="210mm" height="210mm" version="1.1" viewBox="0 0 210 210" xmlns="http://www.w3.org/2000/svg">
 <g transform="translate(0,-87)">
  <rect transform="rotate(-45)" x="-105.19" y="165.69" width="89.705" height="89.705" fill="#f68712" stroke-width=".2211"/>
  <path d="m42.799 191.59-11.605-43.311-11.605-43.311 43.311 11.605 43.311 11.605-31.706 31.706z" fill="#fab20b" stroke-width=".26589"/>
  <path transform="matrix(.7684 .20589 -.030533 .11395 70.598 108.69)" d="m49.25 81.42-56.199 0.23162-56.199-0.23162 27.899-48.786 28.3-48.554 28.3 48.554z" fill="#fbc707" stroke-width=".26458"/>
  <path transform="matrix(-.20589 -.7684 .11395 -.030533 20.451 145.3)" d="m49.25 81.42-56.199 0.23162-56.199-0.23162 27.899-48.786 28.3-48.554 28.3 48.554z" fill="#fff200" stroke-width=".26458"/>
  <path transform="rotate(90 160.49 191.55)" d="m97.072 245.82-11.605-43.311-11.605-43.311l43.311 11.605 43.311 11.605-31.706 31.706z" fill="#f47216" stroke-width=".26589"/>
  <path transform="matrix(-.20589 .7684 -.11395 -.030533 189.13 155.93)" d="m49.25 81.42-56.199 0.23162-56.199-0.23162 27.899-48.786 28.3-48.554 28.3 48.554z" fill="#f1471d" stroke-width=".26458"/>
  <path transform="matrix(.7684 -.20589 .030533 .11395 152.52 105.78)" d="m49.25 81.42-56.199 0.23162-56.199-0.23162 27.899-48.786 28.3-48.554 28.3 48.554z" fill="#fbc707" stroke-width=".26458"/>
  <path transform="scale(-1)" d="m-169.64-191.54-11.605-43.311-11.605-43.311 43.311 11.605 43.311 11.605-31.706 31.706z" fill="#f25c19" stroke-width=".26589"/>
  <path transform="matrix(-.7684 -.20589 .030533 -.11395 141.84 274.44)" d="m49.25 81.42-56.199 0.23162-56.199-0.23162 27.899-48.786 28.3-48.554 28.3 48.554z" fill="#f68712" stroke-width=".26458"/>
  <path transform="matrix(.20589 .7684 -.11395 .030533 191.99 237.84)" d="m49.25 81.42-56.199 0.23162-56.199-0.23162 27.899-48.786 28.3-48.554 28.3 48.554z" fill="#f1471d" stroke-width=".26458"/>
  <path transform="rotate(-90 229.54 -58.922)" d="m-84.357-182.25-11.605-43.311-11.605-43.311 43.311 11.605 43.311 11.605-31.706 31.706z" fill="#f89c0e" stroke-width=".26589"/>
  <path transform="matrix(.20589 -.7684 .11395 .030533 23.313 227.18)" d="m49.25 81.42-56.199 0.23162-56.199-0.23162 27.899-48.786 28.3-48.554 28.3 48.554z" fill="#fff200" stroke-width=".26458"/>
  <path transform="matrix(-.7684 .20589 -.030533 -.11395 59.919 277.32)" d="m49.25 81.42-56.199 0.23162-56.199-0.23162 27.899-48.786 28.3-48.554 28.3 48.554z" fill="#f25c19" stroke-width=".26458"/>
 </g>
</svg>
